assets/sharecard_bananologo.svg

<?xml version="1.0" encoding="UTF-8"?>
<svg width="388px" height="60px" viewBox="0 0 388 60" version="1.1" xmlns="http://www.w3.org/2000/svg" xmlns:xlink="http://www.w3.org/1999/xlink">
    <!-- Generator: Sketch 52.1 (67048) - http://www.bohemiancoding.com/sketch -->
    <title>bananologo</title>
    <desc>Created with Sketch.</desc>
    <g id="Page-1" stroke="none" stroke-width="1" fill="none" fill-rule="evenodd">
        <g id="sharecard-copy-3" transform="translate(-518.000000, -52.000000)" fill="#FBDD11" fill-rule="nonzero">
            <g id="bananologo" transform="translate(518.000000, 52.000000)">
                <path d="M208.479846,44.2386569 L189.930311,44.2386569 L187.525234,50.8806685 L180.470688,50.8806685 L197.153382,9.02689671 L201.255469,9.02689671 L217.991725,50.8806685 L210.883618,50.8806685 L208.479846,44.2386569 Z M206.428803,38.5974963 L199.230554,18.8404364 L192.020547,38.5974963 L206.428803,38.5974963 Z M289.137077,44.2386569 L270.5993,44.2386569 L268.130209,50.8806685 L261.075663,50.8806685 L277.810613,9.02689671 L281.9127,9.02689671 L298.660714,50.8806685 L291.540848,50.8806685 L289.137077,44.2386569 Z M287.086034,38.5974963 L279.887785,18.8404364 L272.677778,38.5974963 L287.086034,38.5974963 Z M354.835798,48.4762863 C351.585481,46.5993656 348.885158,43.9113656 346.997414,40.6774468 C343.129172,34.0276364 343.129172,25.8284565 346.997414,19.178646 C348.882545,15.9434275 351.584175,13.2541277 354.835798,11.3798066 C361.528471,7.53237911 369.777064,7.53237911 376.469737,11.3798066 C379.72136,13.2541277 382.42299,15.9434275 384.308121,19.178646 C388.176364,25.8284565 388.176364,34.0276364 384.308121,40.6774468 C382.421684,43.9113656 379.720054,46.5993656 376.469737,48.4762863 C369.777064,52.3237137 361.528471,52.3237137 354.835798,48.4762863 Z M373.360512,43.082089 C378.070074,40.3732921 380.95068,35.3534391 380.899731,29.9410445 C380.860539,21.5273965 373.975825,14.7385068 365.518209,14.7762012 C362.875367,14.7878994 360.278249,15.4806963 357.984215,16.7870019 C353.265508,19.488 350.37837,24.5117524 350.433239,29.9280464 C350.468512,38.3416944 357.349306,45.1344836 365.805616,45.1006886 C368.457603,45.0902901 371.059946,44.3948936 373.360512,43.082089 Z M175.885887,33.2416433 C177.224944,35.112065 177.904271,37.369829 177.819355,39.6639876 C177.859853,41.7215814 177.317698,43.7479799 176.251678,45.5131172 C175.20656,47.1755698 173.725106,48.5234692 171.966695,49.4125369 C170.107692,50.379593 168.040971,50.883918 165.944203,50.8813184 L148.203328,50.8813284 L148.203328,9.02754662 L163.880096,9.02754662 C165.988621,9.00025068 168.073631,9.48247892 169.954843,10.4313377 C171.752446,11.3542004 173.254803,12.7592913 174.292082,14.4867342 C175.368554,16.2752681 175.915934,18.3289625 175.872823,20.4138522 C175.925079,22.350564 175.446937,24.2638793 174.488042,25.9510282 C173.550048,27.5016975 172.191395,28.7586104 170.56885,29.5774886 C172.681294,30.219593 174.538991,31.5012023 175.885887,33.2416433 Z M168.295719,44.096328 C169.253308,43.6011017 170.058048,42.8550128 170.621106,41.9386491 C171.192001,41.0170863 171.485941,39.9525447 171.470264,38.8698058 C171.479409,37.7844673 171.180244,36.7160263 170.608042,35.7892642 C170.041065,34.8599025 169.240244,34.0943164 168.282655,33.566595 C167.302857,33.0193764 166.193725,32.7360186 165.068917,32.7490166 L154.474035,32.7490166 L154.474035,44.8879103 L165.029725,44.8879103 C166.168904,44.910007 167.293712,44.6370476 168.295719,44.096328 Z M168.700702,17.8662313 C168.1285,16.9810631 167.330291,16.2635698 166.388378,15.7865408 C165.404661,15.2627188 164.303368,14.9936588 163.187705,15.0066569 L154.474035,15.0066569 L154.474035,27.094858 L163.148513,27.094858 C164.264176,27.1026569 165.362857,26.8205988 166.336123,26.2759799 C167.293712,25.744359 168.09584,24.9735737 168.66151,24.0403126 C169.235018,23.1005524 169.534183,22.0204132 169.523732,20.9207768 C169.548554,19.8445369 169.263759,18.7838948 168.700702,17.8662313 Z M256.372894,9.02689671 L256.372894,50.8806685 L253.7601,50.8806685 L229.26515,22.4928928 L229.26515,50.8806685 L222.811547,50.8806685 L222.811547,9.02689671 L225.332894,9.02689671 L249.919292,37.2456975 L249.919292,9.02689671 L256.372894,9.02689671 Z M337.030256,9.02689671 L337.030256,50.8806685 L334.417461,50.8806685 L309.935576,22.4928928 L309.935576,50.8806685 L303.480667,50.8806685 L303.480667,9.02689671 L306.016384,9.02689671 L330.576653,37.2456975 L330.576653,9.02689671 L337.030256,9.02689671 Z M82.1124269,59.4020704 C46.1381643,63.9201981 29.5730465,32.3206004 32.511134,29.2374592 C34.451134,27.2019621 37.4676054,27.0797803 40.0817064,27.0095907 C52.1097064,26.6846391 69.1346761,40.6952542 72.5874842,40.6263644 C79.274932,40.4898847 89.3354976,29.8860627 95.9275785,21.1448634 C98.6866896,17.4885075 115.923296,11.9786275 114.012036,21.5854979 C107.814488,52.7418615 86.6965751,58.8262561 82.1124269,59.4020704 Z M32.0476242,0.441024371 C68.0218869,-4.07710329 84.5870047,27.5224944 81.6476108,30.6056356 C79.7076108,32.6411327 76.6924458,32.7633145 74.0783448,32.8335041 C62.0503448,33.1584557 45.0253751,19.1465408 41.572567,19.2167304 C34.8851192,19.3532101 24.8245535,29.9570321 18.2311663,38.6982313 C15.4733616,42.3545872 -1.76324444,47.8644673 0.148014815,38.2588967 C6.34556364,7.10123327 27.4634761,1.01683868 32.0476242,0.441024371 Z"></path>
            </g>
        </g>
    </g>
</svg>

<svg xmlns="http://www.w3.org/2000/svg" width="388" height="60"><path d="M208.48 44.24h-18.55l-2.405 6.642h-7.055l16.683-41.854h4.102l16.736 41.854h-7.108l-2.404-6.642zm-2.05-5.64L199.23 18.84l-7.2 19.757h14.408zm82.708 5.64H270.6l-2.47 6.642h-7.055L277.81 9.027h4.102L298.66 50.88h-7.12l-2.404-6.642zm-2.05-5.64l-7.198-19.757-7.2 19.757h14.408zm67.75 9.88c-3.25-1.877-5.95-4.565-7.838-7.8-3.868-6.65-3.868-14.85 0-21.5 1.885-3.235 4.587-5.925 7.838-7.8a21.72 21.72 0 0 1 21.634 0c3.252 1.874 5.953 4.564 7.838 7.8 3.868 6.65 3.868 14.85 0 21.5-1.886 3.234-4.588 5.922-7.838 7.8a21.72 21.72 0 0 1-21.634 0zm18.525-5.394c4.7-2.71 7.6-7.73 7.54-13.14-.04-8.414-6.924-15.203-15.382-15.165a15.37 15.37 0 0 0-7.534 2.011c-4.72 2.7-7.606 7.725-7.55 13.14.035 8.414 6.916 15.206 15.372 15.173 2.652-.01 5.254-.706 7.555-2.02zm-197.475-9.84a10.37 10.37 0 0 1 1.933 6.422c.04 2.058-.502 4.084-1.568 5.85-1.045 1.662-2.527 3-4.285 3.9-1.86.967-3.926 1.47-6.022 1.47h-17.74V9.028h15.677c2.11-.027 4.194.455 6.075 1.404 1.798.923 3.3 2.328 4.337 4.055a11.05 11.05 0 0 1 1.581 5.927 10.62 10.62 0 0 1-1.385 5.537 9.67 9.67 0 0 1-3.919 3.626c2.112.642 3.97 1.924 5.317 3.664zm-7.6 10.855a5.92 5.92 0 0 0 2.325-2.158 5.67 5.67 0 0 0 .849-3.069c.01-1.085-.3-2.154-.862-3.08a6.26 6.26 0 0 0-2.325-2.223c-.98-.547-2.09-.83-3.214-.818h-10.595v12.14h10.556c1.14.022 2.264-.25 3.266-.792zm.405-26.23a5.96 5.96 0 0 0-2.312-2.08 6.65 6.65 0 0 0-3.201-.78h-8.714v12.088h8.674c1.116.008 2.214-.274 3.188-.82.958-.532 1.76-1.302 2.325-2.236a5.88 5.88 0 0 0 .862-3.12c.025-1.076-.26-2.137-.823-3.055zm87.672-8.84V50.88h-2.613l-24.495-28.388V50.88h-6.454V9.027h2.52l24.586 28.22V9.027h6.454zm80.657 0V50.88h-2.613l-24.482-28.388V50.88h-6.455V9.027h2.536l24.56 28.22V9.027h6.454zM82.112 59.402c-35.974 4.518-52.54-27.08-49.6-30.165 1.94-2.035 4.956-2.158 7.57-2.228 12.028-.325 29.053 13.686 32.506 13.617 6.687-.136 16.748-10.74 23.34-19.482 2.76-3.656 19.996-9.166 18.084.44-6.198 31.156-27.315 37.24-31.9 37.817zM32.048.44c35.974-4.518 52.54 27.08 49.6 30.165-1.94 2.035-4.955 2.158-7.57 2.228-12.028.325-29.053-13.687-32.506-13.617-6.687.136-16.748 10.74-23.34 19.482-2.758 3.656-19.994 9.166-18.083-.44C6.346 7.1 27.463 1.017 32.048.44z" fill="#FBDD11" fill-rule="nonzero"/></svg>
